X:7761
T:Unknown Jig, An
O:england
R:Jig
S:Tony Crehan, Miltown Malbay 1993
M:6/8
L:1/8
K:D
AB|:FAD FAD|GBG EFG|FAD FAD|GED D2D|
FAD FAd|GBG EFA|fed ecA|GFD D3:|
|:Add ded|cAB cAG|Add ded|cAB c2c|
Add ded|cAB cde|fed ecA|GED D3:||
